X: 47
M:C|
L:1/8
K:D
vDFAd fdAF|GBdg bgdB|Adfa gfed|"4"edcB AGFE|
|:vagfe dfaf|bagf efgb|agfe defd|"4"edcB A2z2|
agfe dfaf|bagf efgb|afge fd"4"ec|d2f2d2z2:|


